third_party/noto/noto_2/emoji_u1f4f7.svg

<svg enable-background="new 0 0 128 128" version="1.1" viewBox="0 0 128 128" xmlns="http://www.w3.org/2000/svg"><path d="m25.24 39.27h-12.25c-1.63 0-2.95-1.32-2.95-2.95v-7.22c0-1.63 1.32-2.95 2.95-2.95h12.25c1.63 0 2.95 1.32 2.95 2.95v7.22c-0.01 1.63-1.33 2.95-2.95 2.95z" fill="#90A4AE"/><path d="m16.28 40.52h-4v-10.4c0-1.1 0.9-2 2-2s2 0.9 2 2v10.4z" fill="#94D1E0"/><path d="m42.36 35.8h-5.51c-1.1 0-1.99-0.89-1.99-1.99v-5.51c0-1.1 0.53-1.58 1.99-1.99s4.12-0.46 5.51 0c1.14 0.38 1.99 0.89 1.99 1.99v5.51c0 1.1-0.9 1.99-1.99 1.99z" fill="#546E7A"/><rect x="4" y="58.9" width="120" height="60.14" fill="#212121"/><path d="M4,117.68v2.73c0,1.98,1.61,3.59,3.59,3.59h112.83c1.98,0,3.59-1.61,3.59-3.59v-2.73H4z" fill="#B0BEC5"/><path d="m43.34 40.55h-7.49c-2.44 0-4.42-1.98-4.42-4.42v-0.65c0-2.44 1.98-4.42 4.42-4.42h7.49c2.44 0 4.42 1.98 4.42 4.42v0.65c0.01 2.44-1.97 4.42-4.42 4.42z" fill="#90A4AE"/><path d="m121.73 34.16h-113.68c-2.24 0-4.05 1.81-4.05 4.05v21.72h120v-23.5c0-1.26-1.02-2.27-2.27-2.27z" fill="#B0BEC5"/><path d="m112.49 55.24h-18.15c-1.06 0-1.92-0.86-1.92-1.92v-12.65c0-1.06 0.86-1.92 1.92-1.92h18.15c1.06 0 1.92 0.86 1.92 1.92v12.66c0 1.05-0.85 1.91-1.92 1.91z" fill="#78909C"/><path d="m92.42 52.84v-11.96c0-1.18 0.95-2.13 2.13-2.13h17.79c1 0 1.41 0.55 1.41 0.55l-20.64 15.42s-0.69-0.42-0.69-1.88z" fill="#757575"/><rect x="96.44" y="41.76" width="13.95" height="10.47" fill="#212121"/><path d="m10.58 115.87h-4.88c-0.94 0-1.7-0.76-1.7-1.7v-45.89c0-0.94 0.76-1.7 1.7-1.7h4.88c0.94 0 1.7 0.76 1.7 1.7v45.89c0 0.94-0.77 1.7-1.7 1.7z" fill="#616161"/><path d="m122.28 115.87h-4.88c-0.94 0-1.7-0.76-1.7-1.7v-45.89c0-0.94 0.76-1.7 1.7-1.7h4.88c0.94 0 1.7 0.76 1.7 1.7v45.89c0 0.94-0.76 1.7-1.7 1.7z" fill="#616161"/><path d="m8.04 122.64c-1.1 0-2-0.9-2-2v-2.44h4v2.44c0 1.1-0.89 2-2 2z" fill="#B9E4EA"/><path d="m121.86 58.52h-4v-20.4c0-1.1 0.9-2 2-2s2 0.9 2 2v20.4z" fill="#B9E4EA"/><path d="m11.16 58.52h-4v-20.4c0-1.1 0.9-2 2-2s2 0.9 2 2v20.4z" fill="#B9E4EA"/><path d="m119.86 122.64c-1.1 0-2-0.9-2-2v-2.44h4v2.44c0 1.1-0.89 2-2 2z" fill="#B9E4EA"/><path d="M60.78,50.42c-0.22,0-0.41-0.18-0.41-0.41V39.66c0-0.22,0.18-0.41,0.41-0.41H84    c0.22,0,0.41,0.18,0.41,0.41v10.35c0,0.22-0.18,0.41-0.41,0.41H60.78z" fill="#FCEBCD"/><path d="m83.9 39.76v10.16h-23.02v-10.16h23.02m0.1-1.01h-23.22c-0.5 0-0.91 0.41-0.91 0.91v10.35c0 0.5 0.41 0.91 0.91 0.91h23.22c0.5 0 0.91-0.41 0.91-0.91v-10.35c0-0.5-0.4-0.91-0.91-0.91z" fill="#78909C"/><path d="m64.54 48.49c-0.76 0-1.38-0.62-1.38-1.38v-4.54c0-0.76 0.62-1.38 1.38-1.38s1.38 0.62 1.38 1.38v4.54c0 0.76-0.62 1.38-1.38 1.38z" fill="#fff"/><path d="m68.45 48.49c-0.58 0-1.05-0.47-1.05-1.05v-5.2c0-0.58 0.47-1.05 1.05-1.05s1.05 0.47 1.05 1.05v5.2c0 0.58-0.47 1.05-1.05 1.05z" fill="#fff"/><path d="m71.89 48.49c-0.43 0-0.77-0.35-0.77-0.77v-5.75c0-0.43 0.35-0.77 0.77-0.77 0.43 0 0.77 0.35 0.77 0.77v5.75c0 0.42-0.34 0.77-0.77 0.77z" fill="#fff"/><ellipse cx="72.39" cy="88.31" rx="32.79" ry="32.79" fill="#616161"/><ellipse cx="72.39" cy="88.31" rx="28.47" ry="28.47" fill="#E0E0E0"/><ellipse cx="72.39" cy="88.31" rx="20.33" ry="20.33" fill="#2F7889"/><ellipse cx="72.39" cy="88.31" rx="26.16" ry="26.16"/><ellipse cx="72.39" cy="88.31" rx="19.94" ry="19.94" fill="#2F7889"/><path d="m67.67 71.58c-6.31 1.43-10.08 7.57-10.08 12.1 0 3.67 2.43 2.75 3.21 1.42 2.01-3.41 4.44-6.25 8.63-7.44 1.68-0.48 3.64-1.53 3.44-3.49-0.28-2.79-3.05-3.08-5.2-2.59z" fill="#94D1E0"/><ellipse cx="72.39" cy="88.31" rx="8.9" ry="8.9" opacity=".25"/></svg>

<?xml version="1.0" encoding="utf-8"?>
<!-- Generator: Adobe Illustrator 25.2.3, SVG Export Plug-In . SVG Version: 6.00 Build 0)  -->
<svg version="1.1" id="Layer_2" xmlns="http://www.w3.org/2000/svg" xmlns:xlink="http://www.w3.org/1999/xlink" x="0px" y="0px"
	 viewBox="0 0 128 128" style="enable-background:new 0 0 128 128;" xml:space="preserve">
<g>
	<path style="fill:#90A4AE;" d="M25.24,39.27H12.99c-1.63,0-2.95-1.32-2.95-2.95V29.1c0-1.63,1.32-2.95,2.95-2.95h12.25
		c1.63,0,2.95,1.32,2.95,2.95v7.22C28.18,37.95,26.86,39.27,25.24,39.27z"/>
	<path style="fill:#94D1E0;" d="M16.28,40.52h-4v-10.4c0-1.1,0.9-2,2-2h0c1.1,0,2,0.9,2,2V40.52z"/>
	<path style="fill:#546E7A;" d="M42.36,35.8h-5.51c-1.1,0-1.99-0.89-1.99-1.99V28.3c0-1.1,0.53-1.58,1.99-1.99
		c1.46-0.41,4.12-0.46,5.51,0c1.14,0.38,1.99,0.89,1.99,1.99v5.51C44.35,34.91,43.45,35.8,42.36,35.8z"/>
	<rect x="4" y="58.9" style="fill:#212121;" width="120" height="60.14"/>
	<path style="fill:#B0BEC5;" d="M4,117.68v2.73c0,1.98,1.61,3.59,3.59,3.59h112.83c1.98,0,3.59-1.61,3.59-3.59v-2.73H4z"/>
	<path style="fill:#90A4AE;" d="M43.34,40.55h-7.49c-2.44,0-4.42-1.98-4.42-4.42v-0.65c0-2.44,1.98-4.42,4.42-4.42h7.49
		c2.44,0,4.42,1.98,4.42,4.42v0.65C47.77,38.57,45.79,40.55,43.34,40.55z"/>
	<path style="fill:#B0BEC5;" d="M121.73,34.16H8.05C5.81,34.16,4,35.97,4,38.21v21.72h120v-23.5
		C124,35.17,122.98,34.16,121.73,34.16z"/>
	<path style="fill:#78909C;" d="M112.49,55.24H94.34c-1.06,0-1.92-0.86-1.92-1.92V40.67c0-1.06,0.86-1.92,1.92-1.92h18.15
		c1.06,0,1.92,0.86,1.92,1.92v12.66C114.41,54.38,113.56,55.24,112.49,55.24z"/>
	<path style="fill:#757575;" d="M92.42,52.84V40.88c0-1.18,0.95-2.13,2.13-2.13h17.79c1,0,1.41,0.55,1.41,0.55L93.11,54.72
		C93.11,54.72,92.42,54.3,92.42,52.84z"/>
	<rect x="96.44" y="41.76" style="fill:#212121;" width="13.95" height="10.47"/>
	<path style="fill:#616161;" d="M10.58,115.87H5.7c-0.94,0-1.7-0.76-1.7-1.7V68.28c0-0.94,0.76-1.7,1.7-1.7h4.88
		c0.94,0,1.7,0.76,1.7,1.7v45.89C12.28,115.11,11.51,115.87,10.58,115.87z"/>
	<path style="fill:#616161;" d="M122.28,115.87h-4.88c-0.94,0-1.7-0.76-1.7-1.7V68.28c0-0.94,0.76-1.7,1.7-1.7h4.88
		c0.94,0,1.7,0.76,1.7,1.7v45.89C123.98,115.11,123.22,115.87,122.28,115.87z"/>
	<path style="fill:#B9E4EA;" d="M8.04,122.64L8.04,122.64c-1.1,0-2-0.9-2-2v-2.44h4v2.44C10.04,121.74,9.15,122.64,8.04,122.64z"/>
	<path style="fill:#B9E4EA;" d="M121.86,58.52h-4v-20.4c0-1.1,0.9-2,2-2h0c1.1,0,2,0.9,2,2V58.52z"/>
	<path style="fill:#B9E4EA;" d="M11.16,58.52h-4v-20.4c0-1.1,0.9-2,2-2h0c1.1,0,2,0.9,2,2V58.52z"/>
	<path style="fill:#B9E4EA;" d="M119.86,122.64L119.86,122.64c-1.1,0-2-0.9-2-2v-2.44h4v2.44
		C121.86,121.74,120.97,122.64,119.86,122.64z"/>
	<g>
		<path style="fill:#FCEBCD;" d="M60.78,50.42c-0.22,0-0.41-0.18-0.41-0.41V39.66c0-0.22,0.18-0.41,0.41-0.41H84
			c0.22,0,0.41,0.18,0.41,0.41v10.35c0,0.22-0.18,0.41-0.41,0.41H60.78z"/>
		<path style="fill:#78909C;" d="M83.9,39.76v10.16H60.88V39.76H83.9 M84,38.75H60.78c-0.5,0-0.91,0.41-0.91,0.91v10.35
			c0,0.5,0.41,0.91,0.91,0.91H84c0.5,0,0.91-0.41,0.91-0.91V39.66C84.91,39.16,84.51,38.75,84,38.75L84,38.75z"/>
	</g>
	<path style="fill:#FFFFFF;" d="M64.54,48.49L64.54,48.49c-0.76,0-1.38-0.62-1.38-1.38v-4.54c0-0.76,0.62-1.38,1.38-1.38l0,0
		c0.76,0,1.38,0.62,1.38,1.38v4.54C65.92,47.87,65.3,48.49,64.54,48.49z"/>
	<path style="fill:#FFFFFF;" d="M68.45,48.49L68.45,48.49c-0.58,0-1.05-0.47-1.05-1.05v-5.2c0-0.58,0.47-1.05,1.05-1.05l0,0
		c0.58,0,1.05,0.47,1.05,1.05v5.2C69.5,48.02,69.03,48.49,68.45,48.49z"/>
	<path style="fill:#FFFFFF;" d="M71.89,48.49L71.89,48.49c-0.43,0-0.77-0.35-0.77-0.77v-5.75c0-0.43,0.35-0.77,0.77-0.77l0,0
		c0.43,0,0.77,0.35,0.77,0.77v5.75C72.66,48.14,72.32,48.49,71.89,48.49z"/>
	<ellipse style="fill:#616161;" cx="72.39" cy="88.31" rx="32.79" ry="32.79"/>
	<ellipse style="fill:#E0E0E0;" cx="72.39" cy="88.31" rx="28.47" ry="28.47"/>
	<ellipse style="fill:#2F7889;" cx="72.39" cy="88.31" rx="20.33" ry="20.33"/>
	<ellipse cx="72.39" cy="88.31" rx="26.16" ry="26.16"/>
	<ellipse style="fill:#2F7889;" cx="72.39" cy="88.31" rx="19.94" ry="19.94"/>
	<path style="fill:#94D1E0;" d="M67.67,71.58c-6.31,1.43-10.08,7.57-10.08,12.1c0,3.67,2.43,2.75,3.21,1.42
		c2.01-3.41,4.44-6.25,8.63-7.44c1.68-0.48,3.64-1.53,3.44-3.49C72.59,71.38,69.82,71.09,67.67,71.58z"/>
	<ellipse style="opacity:0.25;" cx="72.39" cy="88.31" rx="8.9" ry="8.9"/>
</g>
</svg>
